vendor/shopware/storefront/Resources/app/storefront/dist/assets/icon/default/checkmark.svg

<svg xmlns="http://www.w3.org/2000/svg" xmlns:xlink="http://www.w3.org/1999/xlink" width="24" height="24" viewBox="0 0 24 24">
  <defs>
    <path id="icons-default-basic-checkmark-line-a" d="M2.70710678,10.2928932 C2.31658249,9.90236893 1.68341751,9.90236893 1.29289322,10.2928932 C0.902368927,10.6834175 0.902368927,11.3165825 1.29289322,11.7071068 L8.29289322,18.7071068 C8.68341751,19.0976311 9.31658249,19.0976311 9.70710678,18.7071068 L22.7071068,5.70710678 C23.0976311,5.31658249 23.0976311,4.68341751 22.7071068,4.29289322 C22.3165825,3.90236893 21.6834175,3.90236893 21.2928932,4.29289322 L9,16.5857864 L2.70710678,10.2928932 Z"/>
  </defs>
  <use fill="#758CA3" fill-rule="evenodd" xlink:href="#icons-default-basic-checkmark-line-a"/>
</svg>

<svg xmlns="http://www.w3.org/2000/svg" xmlns:xlink="http://www.w3.org/1999/xlink" width="24" height="24" viewBox="0 0 24 24"><defs><path id="icons-default-basic-checkmark-line-a" d="M2.7071 10.2929c-.3905-.3905-1.0237-.3905-1.4142 0-.3905.3905-.3905 1.0237 0 1.4142l7 7c.3905.3905 1.0237.3905 1.4142 0l13-13c.3905-.3905.3905-1.0237 0-1.4142-.3905-.3905-1.0237-.3905-1.4142 0L9 16.5858l-6.2929-6.293z"/></defs><use fill="#758CA3" fill-rule="evenodd" xlink:href="#icons-default-basic-checkmark-line-a"/></svg>
